canopeum_frontend/src/assets/icons/site-type-canopeum.svg

<svg width="24" height="24" viewBox="0 0 24 24" fill="none" xmlns="http://www.w3.org/2000/svg">
<path fill-rule="evenodd" clip-rule="evenodd" d="M15.2648 3.7612C15.4658 2.96888 14.8577 2.1084 14.8577 2.1084C14.8577 2.1084 13.9236 2.53252 13.7225 3.32484C13.5215 4.11716 14.1296 4.97764 14.1296 4.97764C14.1296 4.97764 15.0637 4.55352 15.2648 3.7612ZM19.5879 6.89144C20.1372 6.31142 20.018 5.24515 20.018 5.24515C20.018 5.24515 19.0082 5.11928 18.4589 5.6993C17.9096 6.27932 18.0288 7.34558 18.0288 7.34558C18.0288 7.34558 19.0386 7.47146 19.5879 6.89144ZM19.2706 10.8804C20.3714 10.2093 20.6107 8.47065 20.6107 8.47065C20.6107 8.47065 19.0651 7.82013 17.9643 8.49124C16.8635 9.16235 16.6242 10.901 16.6242 10.901C16.6242 10.901 18.1698 11.5515 19.2706 10.8804ZM2.182 13.7789C2.182 13.7789 3.21245 15.1583 4.48358 15.1583C5.7547 15.1583 6.78516 13.7789 6.78516 13.7789C6.78516 13.7789 5.7547 12.3995 4.48358 12.3995C3.21245 12.3995 2.182 13.7789 2.182 13.7789ZM21.8182 13.7789C21.8182 13.7789 20.7878 15.1583 19.5166 15.1583C18.2455 15.1583 17.2151 13.7789 17.2151 13.7789C17.2151 13.7789 18.2455 12.3995 19.5166 12.3995C20.7878 12.3995 21.8182 13.7789 21.8182 13.7789ZM3.389 8.47065C3.389 8.47065 3.62825 10.2093 4.72908 10.8804C5.8299 11.5515 7.37545 10.901 7.37545 10.901C7.37545 10.901 7.1362 9.16235 6.03538 8.49124C4.93455 7.82013 3.389 8.47065 3.389 8.47065ZM21.8482 11.7852C22.5986 11.5729 23.0002 10.5865 23.0002 10.5865C23.0002 10.5865 22.1853 9.94438 21.435 10.1567C20.6846 10.369 20.283 11.3553 20.283 11.3553C20.283 11.3553 21.0979 11.9975 21.8482 11.7852ZM1 10.5865C1 10.5865 1.40166 11.5729 2.15201 11.7852C2.90236 11.9975 3.71727 11.3553 3.71727 11.3553C3.71727 11.3553 3.3156 10.369 2.56525 10.1567C1.8149 9.94438 1 10.5865 1 10.5865ZM3.98279 5.24515C3.98279 5.24515 3.86359 6.31142 4.41289 6.89144C4.96218 7.47146 5.97197 7.34558 5.97197 7.34558C5.97197 7.34558 6.09117 6.27932 5.54188 5.6993C4.99258 5.11928 3.98279 5.24515 3.98279 5.24515ZM9.14198 2.1084C9.14198 2.1084 8.53385 2.96888 8.73491 3.7612C8.93596 4.55352 9.87007 4.97764 9.87007 4.97764C9.87007 4.97764 10.4782 4.11716 10.2771 3.32484C10.0761 2.53252 9.14198 2.1084 9.14198 2.1084ZM16.8959 7.47656C17.5315 6.31416 16.9154 4.68217 16.9154 4.68217C16.9154 4.68217 15.2689 4.9348 14.6334 6.0972C13.9978 7.2596 14.6139 8.89159 14.6139 8.89159C14.6139 8.89159 16.2604 8.63896 16.8959 7.47656ZM11.9281 3.33539C11.9281 3.33539 13.2344 4.42347 13.2344 5.76569C13.2344 7.10791 11.9281 8.196 11.9281 8.196C11.9281 8.196 10.6218 7.10791 10.6218 5.76569C10.6218 4.42347 11.9281 3.33539 11.9281 3.33539ZM7.10374 7.47656C6.46818 6.31416 7.08424 4.68217 7.08424 4.68217C7.08424 4.68217 8.73076 4.9348 9.36632 6.0972C10.0019 7.2596 9.38582 8.89159 9.38582 8.89159C9.38582 8.89159 7.7393 8.63896 7.10374 7.47656ZM13.2341 11.0861C13.2341 11.8117 12.6771 12.3998 11.99 12.3998C11.3029 12.3998 10.7459 11.8117 10.7459 11.0861C10.7459 10.3606 11.3029 9.77246 11.99 9.77246C12.6771 9.77246 13.2341 10.3606 13.2341 11.0861ZM11.9571 13.4049L14.7515 11.3987C14.9934 11.225 15.33 11.2774 15.5077 11.5164C15.6927 11.7653 15.6335 12.118 15.3774 12.2928L12.7482 14.087C12.4185 14.3826 11.7461 15.192 11.6934 16.0651C11.6406 16.9382 11.8472 17.5202 11.9571 17.7021C12.1768 18.0887 12.4844 19.1618 11.9571 20.3623C12.3526 20.0895 13.0119 19.1755 12.4845 17.7021C11.9571 16.2288 12.6603 15.1329 13.0778 14.7691C14.0228 16.156 15.1215 19.4892 11.9571 21.7265C10.5946 20.9535 8.51571 18.3433 11.1 14.087L8.5893 12.2975C8.33898 12.119 8.28401 11.7698 8.46742 11.5231C8.64738 11.2811 8.98894 11.2296 9.23222 11.4079L11.9571 13.4049Z" fill="currentColor"/>
</svg>

<svg width="24" height="24" fill="none" xmlns="http://www.w3.org/2000/svg">
  <path fill-rule="evenodd" clip-rule="evenodd"
    d="M15.265 3.761c.2-.792-.407-1.653-.407-1.653s-.934.425-1.136 1.217c-.2.792.408 1.653.408 1.653s.934-.424 1.135-1.217zm4.323 3.13c.55-.58.43-1.646.43-1.646s-1.01-.126-1.56.454c-.548.58-.43 1.647-.43 1.647s1.01.125 1.56-.455zm-.317 3.99c1.1-.672 1.34-2.41 1.34-2.41s-1.546-.65-2.647.02c-1.1.671-1.34 2.41-1.34 2.41s1.546.65 2.647-.02zM2.182 13.778s1.03 1.38 2.302 1.38c1.27 0 2.301-1.38 2.301-1.38s-1.03-1.38-2.301-1.38c-1.272 0-2.302 1.38-2.302 1.38zm19.636 0s-1.03 1.38-2.301 1.38c-1.271 0-2.302-1.38-2.302-1.38s1.03-1.38 2.302-1.38c1.27 0 2.301 1.38 2.301 1.38zM3.39 8.47s.24 1.738 1.34 2.41c1.1.67 2.646.02 2.646.02s-.239-1.739-1.34-2.41c-1.1-.67-2.646-.02-2.646-.02zm18.46 3.314c.75-.212 1.151-1.199 1.151-1.199s-.815-.642-1.565-.43c-.75.213-1.152 1.2-1.152 1.2s.815.642 1.565.43zM1 10.586s.402.987 1.152 1.2c.75.212 1.565-.43 1.565-.43s-.401-.987-1.152-1.2c-.75-.212-1.565.43-1.565.43zm2.983-5.34s-.12 1.065.43 1.645c.55.58 1.559.455 1.559.455s.12-1.067-.43-1.647c-.55-.58-1.56-.454-1.56-.454zm5.159-3.138s-.608.86-.407 1.653S9.87 4.978 9.87 4.978s.608-.86.407-1.653c-.2-.792-1.135-1.217-1.135-1.217zm7.754 5.369c.636-1.163.02-2.795.02-2.795s-1.647.253-2.283 1.415c-.635 1.163-.02 2.795-.02 2.795s1.647-.253 2.283-1.415zm-4.968-4.142s1.306 1.088 1.306 2.43c0 1.343-1.306 2.431-1.306 2.431s-1.306-1.088-1.306-2.43c0-1.343 1.306-2.43 1.306-2.43zM7.104 7.477c-.636-1.163-.02-2.795-.02-2.795s1.647.253 2.282 1.415c.636 1.163.02 2.795.02 2.795s-1.647-.253-2.282-1.415zm6.13 3.61c0 .725-.557 1.313-1.244 1.313-.687 0-1.244-.588-1.244-1.314 0-.725.557-1.314 1.244-1.314.687 0 1.244.589 1.244 1.314zm-1.277 2.318l2.794-2.006a.546.546 0 11.626.894l-2.629 1.794c-.33.296-1.002 1.105-1.055 1.978-.052.873.154 1.455.264 1.637.22.387.527 1.46 0 2.66.396-.272 1.055-1.186.527-2.66-.527-1.473.176-2.57.594-2.933.945 1.387 2.043 4.72-1.12 6.958-1.363-.774-3.442-3.384-.858-7.64l-2.51-1.79a.549.549 0 11.642-.89l2.725 1.998z"
    fill="currentColor" />
</svg>
